svg/pingdom.svg

<?xml version="1.0" encoding="UTF-8"?>
<svg width="225px" height="225px" viewBox="0 0 225 225" version="1.1" xmlns="http://www.w3.org/2000/svg" xmlns:xlink="http://www.w3.org/1999/xlink">
    <title>logo-resize</title>
    <g id="logo-resize" stroke="none" stroke-width="1" fill="none" fill-rule="evenodd">
        <g id="Group">
            <rect id="Rectangle-13" fill="#F6EA35" x="0" y="0" width="225" height="225" rx="28.5"></rect>
            <path d="M112.5,118.917642 C100.032082,118.917642 89.8955631,108.83343 89.8955631,96.4421638 C89.8955631,84.0600523 100.032082,73.9895735 112.5,73.9895735 C124.967918,73.9895735 135.104437,84.0600523 135.104437,96.4421638 C135.104437,108.83343 124.967918,118.917642 112.5,118.917642 L112.5,118.917642 Z M112.5,49.5 C86.4445392,49.5 65.25,70.5610332 65.25,96.4421638 L65.25,163.264368 C65.25,170.029899 70.7559727,175.5 77.5658703,175.5 C84.3803754,175.5 89.8955631,170.029899 89.8955631,163.264368 L89.8955631,137.662465 C96.6087031,141.319879 104.317065,143.393483 112.5,143.393483 C138.550853,143.393483 159.75,122.332449 159.75,96.4421638 C159.75,70.5610332 138.550853,49.5 112.5,49.5 L112.5,49.5 Z" id="Fill-2" fill="#0B0B0A"></path>
        </g>
    </g>
</svg>

<svg xmlns="http://www.w3.org/2000/svg" width="225" height="225"><g fill="none" fill-rule="evenodd"><rect width="225" height="225" fill="#F6EA35" rx="28.5"/><path fill="#0B0B0A" d="M112.5 118.918c-12.468 0-22.604-10.085-22.604-22.476 0-12.382 10.136-22.452 22.604-22.452s22.604 10.07 22.604 22.452c0 12.391-10.136 22.476-22.604 22.476Zm0-69.418c-26.055 0-47.25 21.061-47.25 46.942v66.822c0 6.766 5.506 12.236 12.316 12.236 6.814 0 12.33-5.47 12.33-12.236v-25.602c6.713 3.658 14.421 5.731 22.604 5.731 26.05 0 47.25-21.06 47.25-46.95 0-25.882-21.2-46.943-47.25-46.943Z"/></g></svg>
